images/50457819.svg

<?xml version="1.0" encoding="UTF-8"?>
<svg xmlns="http://www.w3.org/2000/svg" xmlns:xlink="http://www.w3.org/1999/xlink" width="300pt" height="300pt" viewBox="0 0 300 300" version="1.1">
<defs>
<g>
<symbol overflow="visible" id="glyph0-0">
<path style="stroke:none;" d="M 0.453125 1.59375 L 0.453125 -6.34375 L 4.953125 -6.34375 L 4.953125 1.59375 Z M 0.953125 1.09375 L 4.453125 1.09375 L 4.453125 -5.84375 L 0.953125 -5.84375 Z M 0.953125 1.09375 "/>
</symbol>
<symbol overflow="visible" id="glyph0-1">
<path style="stroke:none;" d="M 3.546875 -5.953125 C 2.898438 -5.953125 2.382812 -5.710938 2 -5.234375 C 1.625 -4.753906 1.4375 -4.101562 1.4375 -3.28125 C 1.4375 -2.445312 1.625 -1.789062 2 -1.3125 C 2.382812 -0.832031 2.898438 -0.59375 3.546875 -0.59375 C 4.191406 -0.59375 4.703125 -0.832031 5.078125 -1.3125 C 5.453125 -1.789062 5.640625 -2.445312 5.640625 -3.28125 C 5.640625 -4.101562 5.453125 -4.753906 5.078125 -5.234375 C 4.703125 -5.710938 4.191406 -5.953125 3.546875 -5.953125 Z M 3.546875 -6.6875 C 4.460938 -6.6875 5.195312 -6.375 5.75 -5.75 C 6.300781 -5.132812 6.578125 -4.3125 6.578125 -3.28125 C 6.578125 -2.238281 6.300781 -1.410156 5.75 -0.796875 C 5.195312 -0.179688 4.460938 0.125 3.546875 0.125 C 2.617188 0.125 1.878906 -0.179688 1.328125 -0.796875 C 0.773438 -1.410156 0.5 -2.238281 0.5 -3.28125 C 0.5 -4.3125 0.773438 -5.132812 1.328125 -5.75 C 1.878906 -6.375 2.617188 -6.6875 3.546875 -6.6875 Z M 3.546875 -6.6875 "/>
</symbol>
<symbol overflow="visible" id="glyph0-2">
<path style="stroke:none;" d="M 0.890625 -6.5625 L 2.078125 -6.5625 L 4.984375 -1.078125 L 4.984375 -6.5625 L 5.84375 -6.5625 L 5.84375 0 L 4.65625 0 L 1.75 -5.484375 L 1.75 0 L 0.890625 0 Z M 0.890625 -6.5625 "/>
</symbol>
<symbol overflow="visible" id="glyph0-3">
<path style="stroke:none;" d="M 0.890625 -6.5625 L 1.765625 -6.5625 L 1.765625 -3.875 L 5 -3.875 L 5 -6.5625 L 5.890625 -6.5625 L 5.890625 0 L 5 0 L 5 -3.125 L 1.765625 -3.125 L 1.765625 0 L 0.890625 0 Z M 0.890625 -6.5625 "/>
</symbol>
</g>
</defs>
<g id="surface12801">
<rect x="0" y="0" width="300" height="300" style="fill:rgb(100%,100%,100%);fill-opacity:1;stroke:none;"/>
<path style="fill:none;stroke-width:1.2;stroke-linecap:butt;stroke-linejoin:miter;stroke:rgb(100%,0%,0%);stroke-opacity:1;stroke-miterlimit:10;" d="M 117.21875 145.222656 L 112.171875 134.304688 "/>
<path style="fill:none;stroke-width:1.2;stroke-linecap:butt;stroke-linejoin:miter;stroke:rgb(0%,0%,0%);stroke-opacity:1;stroke-miterlimit:10;" d="M 112.171875 134.304688 L 107.128906 123.382812 "/>
<path style="fill:none;stroke-width:1.2;stroke-linecap:butt;stroke-linejoin:miter;stroke:rgb(100%,0%,0%);stroke-opacity:1;stroke-miterlimit:10;" d="M 117.21875 145.222656 L 129.195312 146.3125 "/>
<path style="fill:none;stroke-width:1.2;stroke-linecap:butt;stroke-linejoin:miter;stroke:rgb(0%,0%,0%);stroke-opacity:1;stroke-miterlimit:10;" d="M 129.195312 146.3125 L 141.175781 147.40625 "/>
<path style=" stroke:none;fill-rule:nonzero;fill:rgb(100%,100%,100%);fill-opacity:1;" d="M 113.21875 139.722656 L 121.21875 139.722656 L 121.21875 150.722656 L 113.21875 150.722656 Z M 113.21875 139.722656 "/>
<g style="fill:rgb(100%,0%,0%);fill-opacity:1;">
  <use xlink:href="#glyph0-1" x="113.21875" y="148.385742"/>
</g>
<path style="fill:none;stroke-width:1.2;stroke-linecap:butt;stroke-linejoin:miter;stroke:rgb(0%,0%,0%);stroke-opacity:1;stroke-miterlimit:10;" d="M 107.128906 123.382812 L 83.167969 121.203125 "/>
<path style="fill:none;stroke-width:1.2;stroke-linecap:butt;stroke-linejoin:miter;stroke:rgb(0%,0%,0%);stroke-opacity:1;stroke-miterlimit:10;" d="M 83.167969 121.203125 L 73.078125 99.363281 "/>
<path style="fill:none;stroke-width:1.2;stroke-linecap:butt;stroke-linejoin:miter;stroke:rgb(0%,0%,0%);stroke-opacity:1;stroke-miterlimit:10;" d="M 69.300781 140.859375 L 83.167969 121.203125 "/>
<path style="fill:none;stroke-width:1.2;stroke-linecap:butt;stroke-linejoin:miter;stroke:rgb(0%,0%,0%);stroke-opacity:1;stroke-miterlimit:10;" d="M 73.078125 99.363281 L 49.117188 97.179688 "/>
<path style="fill:none;stroke-width:1.2;stroke-linecap:butt;stroke-linejoin:miter;stroke:rgb(0%,0%,0%);stroke-opacity:1;stroke-miterlimit:10;" d="M 49.117188 97.179688 L 35.25 116.835938 "/>
<path style="fill:none;stroke-width:1.2;stroke-linecap:butt;stroke-linejoin:miter;stroke:rgb(0%,0%,0%);stroke-opacity:1;stroke-miterlimit:10;" d="M 35.25 116.835938 L 45.339844 138.679688 "/>
<path style="fill:none;stroke-width:1.2;stroke-linecap:butt;stroke-linejoin:miter;stroke:rgb(0%,0%,0%);stroke-opacity:1;stroke-miterlimit:10;" d="M 45.339844 138.679688 L 69.300781 140.859375 "/>
<path style="fill:none;stroke-width:1.2;stroke-linecap:butt;stroke-linejoin:miter;stroke:rgb(0%,0%,0%);stroke-opacity:1;stroke-miterlimit:10;" d="M 141.175781 147.40625 L 148.109375 137.578125 "/>
<path style="fill:none;stroke-width:1.2;stroke-linecap:butt;stroke-linejoin:miter;stroke:rgb(0%,0%,100%);stroke-opacity:1;stroke-miterlimit:10;" d="M 148.109375 137.578125 L 155.046875 127.746094 "/>
<path style="fill:none;stroke-width:1.2;stroke-linecap:butt;stroke-linejoin:miter;stroke:rgb(0%,0%,0%);stroke-opacity:1;stroke-miterlimit:10;" d="M 147.1875 148.703125 L 152.734375 140.839844 "/>
<path style="fill:none;stroke-width:1.2;stroke-linecap:butt;stroke-linejoin:miter;stroke:rgb(0%,0%,100%);stroke-opacity:1;stroke-miterlimit:10;" d="M 152.734375 140.839844 L 158.285156 132.976562 "/>
<path style="fill:none;stroke-width:1.2;stroke-linecap:butt;stroke-linejoin:miter;stroke:rgb(0%,0%,0%);stroke-opacity:1;stroke-miterlimit:10;" d="M 151.265625 169.246094 L 141.175781 147.40625 "/>
<path style="fill:none;stroke-width:1.2;stroke-linecap:butt;stroke-linejoin:miter;stroke:rgb(0%,0%,100%);stroke-opacity:1;stroke-miterlimit:10;" d="M 155.046875 127.746094 L 167.023438 128.839844 "/>
<path style="fill:none;stroke-width:1.2;stroke-linecap:butt;stroke-linejoin:miter;stroke:rgb(0%,0%,0%);stroke-opacity:1;stroke-miterlimit:10;" d="M 167.023438 128.839844 L 179.003906 129.929688 "/>
<path style=" stroke:none;fill-rule:nonzero;fill:rgb(100%,100%,100%);fill-opacity:1;" d="M 152.046875 122.246094 L 159.046875 122.246094 L 159.046875 133.246094 L 152.046875 133.246094 Z M 152.046875 122.246094 "/>
<g style="fill:rgb(0%,0%,100%);fill-opacity:1;">
  <use xlink:href="#glyph0-2" x="152.046875" y="130.90918"/>
</g>
<path style="fill:none;stroke-width:1.2;stroke-linecap:butt;stroke-linejoin:miter;stroke:rgb(0%,0%,0%);stroke-opacity:1;stroke-miterlimit:10;" d="M 179.003906 129.929688 L 184.050781 140.847656 "/>
<path style="fill:none;stroke-width:1.2;stroke-linecap:butt;stroke-linejoin:miter;stroke:rgb(0%,0%,100%);stroke-opacity:1;stroke-miterlimit:10;" d="M 184.050781 140.847656 L 189.09375 151.769531 "/>
<path style="fill:none;stroke-width:1.2;stroke-linecap:butt;stroke-linejoin:miter;stroke:rgb(0%,0%,0%);stroke-opacity:1;stroke-miterlimit:10;" d="M 174.875 134.488281 L 178.910156 143.222656 "/>
<path style="fill:none;stroke-width:1.2;stroke-linecap:butt;stroke-linejoin:miter;stroke:rgb(0%,0%,100%);stroke-opacity:1;stroke-miterlimit:10;" d="M 178.910156 143.222656 L 182.945312 151.960938 "/>
<path style="fill:none;stroke-width:1.2;stroke-linecap:butt;stroke-linejoin:miter;stroke:rgb(0%,0%,0%);stroke-opacity:1;stroke-miterlimit:10;" d="M 179.003906 129.929688 L 185.9375 120.101562 "/>
<path style="fill:none;stroke-width:1.2;stroke-linecap:butt;stroke-linejoin:miter;stroke:rgb(0%,0%,100%);stroke-opacity:1;stroke-miterlimit:10;" d="M 185.9375 120.101562 L 192.871094 110.269531 "/>
<path style="fill:none;stroke-width:1.2;stroke-linecap:butt;stroke-linejoin:miter;stroke:rgb(0%,0%,100%);stroke-opacity:1;stroke-miterlimit:10;" d="M 189.09375 151.769531 L 182.160156 161.597656 "/>
<path style="fill:none;stroke-width:1.2;stroke-linecap:butt;stroke-linejoin:miter;stroke:rgb(0%,0%,0%);stroke-opacity:1;stroke-miterlimit:10;" d="M 182.160156 161.597656 L 175.226562 171.425781 "/>
<path style=" stroke:none;fill-rule:nonzero;fill:rgb(100%,100%,100%);fill-opacity:1;" d="M 186.09375 146.269531 L 193.09375 146.269531 L 193.09375 157.269531 L 186.09375 157.269531 Z M 186.09375 146.269531 "/>
<g style="fill:rgb(0%,0%,100%);fill-opacity:1;">
  <use xlink:href="#glyph0-2" x="186.09375" y="154.932617"/>
</g>
<path style="fill:none;stroke-width:1.2;stroke-linecap:butt;stroke-linejoin:miter;stroke:rgb(0%,0%,0%);stroke-opacity:1;stroke-miterlimit:10;" d="M 175.226562 171.425781 L 177.890625 183.15625 "/>
<path style="fill:none;stroke-width:1.2;stroke-linecap:butt;stroke-linejoin:miter;stroke:rgb(0%,0%,100%);stroke-opacity:1;stroke-miterlimit:10;" d="M 177.890625 183.15625 L 180.554688 194.886719 "/>
<path style="fill:none;stroke-width:1.2;stroke-linecap:butt;stroke-linejoin:miter;stroke:rgb(0%,0%,0%);stroke-opacity:1;stroke-miterlimit:10;" d="M 151.265625 169.246094 L 175.226562 171.425781 "/>
<path style="fill:none;stroke-width:1.2;stroke-linecap:butt;stroke-linejoin:miter;stroke:rgb(0%,0%,0%);stroke-opacity:1;stroke-miterlimit:10;" d="M 154.175781 163.824219 L 173.34375 165.570312 "/>
<path style="fill:none;stroke-width:1.2;stroke-linecap:butt;stroke-linejoin:miter;stroke:rgb(0%,0%,100%);stroke-opacity:1;stroke-miterlimit:10;" d="M 180.554688 194.886719 L 170.21875 201.046875 "/>
<path style="fill:none;stroke-width:1.2;stroke-linecap:butt;stroke-linejoin:miter;stroke:rgb(0%,0%,0%);stroke-opacity:1;stroke-miterlimit:10;" d="M 170.21875 201.046875 L 159.886719 207.207031 "/>
<path style="fill:none;stroke-width:1.2;stroke-linecap:butt;stroke-linejoin:miter;stroke:rgb(0%,0%,100%);stroke-opacity:1;stroke-miterlimit:10;" d="M 175.589844 191.257812 L 167.324219 196.183594 "/>
<path style="fill:none;stroke-width:1.2;stroke-linecap:butt;stroke-linejoin:miter;stroke:rgb(0%,0%,0%);stroke-opacity:1;stroke-miterlimit:10;" d="M 167.324219 196.183594 L 159.054688 201.109375 "/>
<path style=" stroke:none;fill-rule:nonzero;fill:rgb(100%,100%,100%);fill-opacity:1;" d="M 177.554688 189.386719 L 184.554688 189.386719 L 184.554688 200.386719 L 177.554688 200.386719 Z M 177.554688 189.386719 "/>
<g style="fill:rgb(0%,0%,100%);fill-opacity:1;">
  <use xlink:href="#glyph0-2" x="177.554688" y="198.049805"/>
</g>
<path style="fill:none;stroke-width:1.2;stroke-linecap:butt;stroke-linejoin:miter;stroke:rgb(0%,0%,0%);stroke-opacity:1;stroke-miterlimit:10;" d="M 159.886719 207.207031 L 150.835938 199.28125 "/>
<path style="fill:none;stroke-width:1.2;stroke-linecap:butt;stroke-linejoin:miter;stroke:rgb(0%,0%,100%);stroke-opacity:1;stroke-miterlimit:10;" d="M 150.835938 199.28125 L 141.785156 191.359375 "/>
<path style="fill:none;stroke-width:1.2;stroke-linecap:butt;stroke-linejoin:miter;stroke:rgb(0%,0%,100%);stroke-opacity:1;stroke-miterlimit:10;" d="M 141.785156 191.359375 L 146.527344 180.300781 "/>
<path style="fill:none;stroke-width:1.2;stroke-linecap:butt;stroke-linejoin:miter;stroke:rgb(0%,0%,0%);stroke-opacity:1;stroke-miterlimit:10;" d="M 146.527344 180.300781 L 151.265625 169.246094 "/>
<path style=" stroke:none;fill-rule:nonzero;fill:rgb(100%,100%,100%);fill-opacity:1;" d="M 134.785156 185.859375 L 148.785156 185.859375 L 148.785156 196.859375 L 134.785156 196.859375 Z M 134.785156 185.859375 "/>
<g style="fill:rgb(0%,0%,100%);fill-opacity:1;">
  <use xlink:href="#glyph0-2" x="134.785156" y="194.522461"/>
  <use xlink:href="#glyph0-3" x="141.762695" y="194.522461"/>
</g>
<path style="fill:none;stroke-width:1.2;stroke-linecap:butt;stroke-linejoin:miter;stroke:rgb(0%,0%,100%);stroke-opacity:1;stroke-miterlimit:10;" d="M 192.871094 110.269531 L 204.851562 111.363281 "/>
<path style="fill:none;stroke-width:1.2;stroke-linecap:butt;stroke-linejoin:miter;stroke:rgb(0%,0%,0%);stroke-opacity:1;stroke-miterlimit:10;" d="M 204.851562 111.363281 L 216.832031 112.453125 "/>
<path style=" stroke:none;fill-rule:nonzero;fill:rgb(100%,100%,100%);fill-opacity:1;" d="M 185.871094 104.769531 L 199.871094 104.769531 L 199.871094 115.769531 L 185.871094 115.769531 Z M 185.871094 104.769531 "/>
<g style="fill:rgb(0%,0%,100%);fill-opacity:1;">
  <use xlink:href="#glyph0-2" x="185.871094" y="113.432617"/>
  <use xlink:href="#glyph0-3" x="192.848633" y="113.432617"/>
</g>
<path style="fill:none;stroke-width:1.2;stroke-linecap:butt;stroke-linejoin:miter;stroke:rgb(0%,0%,0%);stroke-opacity:1;stroke-miterlimit:10;" d="M 216.832031 112.453125 L 226.921875 134.292969 "/>
<path style="fill:none;stroke-width:1.2;stroke-linecap:butt;stroke-linejoin:miter;stroke:rgb(0%,0%,0%);stroke-opacity:1;stroke-miterlimit:10;" d="M 222.980469 112.261719 L 231.050781 129.734375 "/>
<path style="fill:none;stroke-width:1.2;stroke-linecap:butt;stroke-linejoin:miter;stroke:rgb(0%,0%,0%);stroke-opacity:1;stroke-miterlimit:10;" d="M 230.699219 92.792969 L 216.832031 112.453125 "/>
<path style="fill:none;stroke-width:1.2;stroke-linecap:butt;stroke-linejoin:miter;stroke:rgb(0%,0%,0%);stroke-opacity:1;stroke-miterlimit:10;" d="M 226.921875 134.292969 L 250.882812 136.476562 "/>
<path style="fill:none;stroke-width:1.2;stroke-linecap:butt;stroke-linejoin:miter;stroke:rgb(0%,0%,0%);stroke-opacity:1;stroke-miterlimit:10;" d="M 250.882812 136.476562 L 264.75 116.816406 "/>
<path style="fill:none;stroke-width:1.2;stroke-linecap:butt;stroke-linejoin:miter;stroke:rgb(0%,0%,0%);stroke-opacity:1;stroke-miterlimit:10;" d="M 247.640625 131.246094 L 258.738281 115.519531 "/>
<path style="fill:none;stroke-width:1.2;stroke-linecap:butt;stroke-linejoin:miter;stroke:rgb(0%,0%,0%);stroke-opacity:1;stroke-miterlimit:10;" d="M 264.75 116.816406 L 254.660156 94.976562 "/>
<path style="fill:none;stroke-width:1.2;stroke-linecap:butt;stroke-linejoin:miter;stroke:rgb(0%,0%,0%);stroke-opacity:1;stroke-miterlimit:10;" d="M 254.660156 94.976562 L 230.699219 92.792969 "/>
<path style="fill:none;stroke-width:1.2;stroke-linecap:butt;stroke-linejoin:miter;stroke:rgb(0%,0%,0%);stroke-opacity:1;stroke-miterlimit:10;" d="M 251.75 100.394531 L 232.582031 98.648438 "/>
</g>
</svg>

<svg xmlns="http://www.w3.org/2000/svg" xmlns:xlink="http://www.w3.org/1999/xlink" width="300pt" height="300pt" viewBox="0 0 300 300"><defs><symbol overflow="visible"><path d="M.453 1.594v-7.938h4.5v7.938zm.5-.5h3.5v-6.938h-3.5zm0 0"/></symbol><symbol overflow="visible" id="a"><path d="M3.547-5.953c-.65 0-1.164.242-1.547.72-.375.48-.563 1.13-.563 1.952 0 .835.188 1.49.563 1.967.383.48.898.72 1.547.72.644 0 1.156-.24 1.53-.72.376-.476.564-1.132.564-1.968 0-.822-.187-1.474-.562-1.954-.375-.477-.887-.72-1.53-.72zm0-.734c.914 0 1.648.312 2.203.937.55.617.828 1.438.828 2.47 0 1.042-.277 1.87-.828 2.483-.555.617-1.29.922-2.203.922-.93 0-1.668-.305-2.22-.922C.774-1.41.5-2.237.5-3.28c0-1.033.273-1.853.828-2.47.55-.625 1.29-.938 2.22-.938zm0 0"/></symbol><symbol overflow="visible" id="b"><path d="M.89-6.563H2.08l2.906 5.485v-5.484h.86V0H4.656L1.75-5.484V0H.89zm0 0"/></symbol><symbol overflow="visible" id="c"><path d="M.89-6.563h.876v2.688H5v-2.688h.89V0H5v-3.125H1.766V0H.89zm0 0"/></symbol></defs><g><path fill="#fff" d="M0 0h300v300H0z"/><path d="M117.22 145.223l-5.048-10.918" stroke-width="1.2" stroke="#f00" stroke-miterlimit="10" fill="none"/><path d="M112.172 134.305l-5.043-10.922" stroke-width="1.2" stroke="#000" stroke-miterlimit="10" fill="none"/><path d="M117.22 145.223l11.975 1.09" stroke-width="1.2" stroke="#f00" stroke-miterlimit="10" fill="none"/><path d="M129.195 146.313l11.98 1.093" stroke-width="1.2" stroke="#000" stroke-miterlimit="10" fill="none"/><path d="M113.22 139.723h8v11h-8zm0 0" fill="#fff"/><use xlink:href="#a" x="113.219" y="148.386" fill="#f00"/><path d="M107.13 123.383l-23.962-2.18M83.168 121.203l-10.09-21.84M69.3 140.86l13.868-19.657M73.078 99.363l-23.96-2.183M49.117 97.18L35.25 116.836M35.25 116.836l10.09 21.844M45.34 138.68l23.96 2.18M141.176 147.406l6.933-9.828" stroke-width="1.2" stroke="#000" stroke-miterlimit="10" fill="none"/><path d="M148.11 137.578l6.937-9.832" stroke-width="1.2" stroke="#00f" stroke-miterlimit="10" fill="none"/><path d="M147.188 148.703l5.546-7.863" stroke-width="1.2" stroke="#000" stroke-miterlimit="10" fill="none"/><path d="M152.734 140.84l5.55-7.863" stroke-width="1.2" stroke="#00f" stroke-miterlimit="10" fill="none"/><path d="M151.266 169.246l-10.09-21.84" stroke-width="1.2" stroke="#000" stroke-miterlimit="10" fill="none"/><path d="M155.047 127.746l11.976 1.094" stroke-width="1.2" stroke="#00f" stroke-miterlimit="10" fill="none"/><path d="M167.023 128.84l11.98 1.09" stroke-width="1.2" stroke="#000" stroke-miterlimit="10" fill="none"/><path d="M152.047 122.246h7v11h-7zm0 0" fill="#fff"/><use xlink:href="#b" x="152.047" y="130.909" fill="#00f"/><path d="M179.004 129.93l5.047 10.918" stroke-width="1.2" stroke="#000" stroke-miterlimit="10" fill="none"/><path d="M184.05 140.848l5.044 10.922" stroke-width="1.2" stroke="#00f" stroke-miterlimit="10" fill="none"/><path d="M174.875 134.488l4.035 8.735" stroke-width="1.2" stroke="#000" stroke-miterlimit="10" fill="none"/><path d="M178.91 143.223l4.035 8.738" stroke-width="1.2" stroke="#00f" stroke-miterlimit="10" fill="none"/><path d="M179.004 129.93l6.934-9.828" stroke-width="1.2" stroke="#000" stroke-miterlimit="10" fill="none"/><path d="M185.938 120.102l6.933-9.832M189.094 151.77l-6.934 9.828" stroke-width="1.2" stroke="#00f" stroke-miterlimit="10" fill="none"/><path d="M182.16 161.598l-6.933 9.828" stroke-width="1.2" stroke="#000" stroke-miterlimit="10" fill="none"/><path d="M186.094 146.27h7v11h-7zm0 0" fill="#fff"/><use xlink:href="#b" x="186.094" y="154.933" fill="#00f"/><path d="M175.227 171.426l2.664 11.73" stroke-width="1.2" stroke="#000" stroke-miterlimit="10" fill="none"/><path d="M177.89 183.156l2.665 11.73" stroke-width="1.2" stroke="#00f" stroke-miterlimit="10" fill="none"/><path d="M151.266 169.246l23.96 2.18M154.176 163.824l19.168 1.746" stroke-width="1.2" stroke="#000" stroke-miterlimit="10" fill="none"/><path d="M180.555 194.887l-10.336 6.16" stroke-width="1.2" stroke="#00f" stroke-miterlimit="10" fill="none"/><path d="M170.22 201.047l-10.333 6.16" stroke-width="1.2" stroke="#000" stroke-miterlimit="10" fill="none"/><path d="M175.59 191.258l-8.266 4.926" stroke-width="1.2" stroke="#00f" stroke-miterlimit="10" fill="none"/><path d="M167.324 196.184l-8.27 4.925" stroke-width="1.2" stroke="#000" stroke-miterlimit="10" fill="none"/><path d="M177.555 189.387h7v11h-7zm0 0" fill="#fff"/><use xlink:href="#b" x="177.555" y="198.05" fill="#00f"/><path d="M159.887 207.207l-9.05-7.926" stroke-width="1.2" stroke="#000" stroke-miterlimit="10" fill="none"/><path d="M150.836 199.28l-9.05-7.92M141.785 191.36l4.742-11.06" stroke-width="1.2" stroke="#00f" stroke-miterlimit="10" fill="none"/><path d="M146.527 180.3l4.74-11.054" stroke-width="1.2" stroke="#000" stroke-miterlimit="10" fill="none"/><path d="M134.785 185.86h14v11h-14zm0 0" fill="#fff"/><g fill="#00f"><use xlink:href="#b" x="134.785" y="194.522"/><use xlink:href="#c" x="141.763" y="194.522"/></g><path d="M192.87 110.27l11.982 1.093" stroke-width="1.2" stroke="#00f" stroke-miterlimit="10" fill="none"/><path d="M204.852 111.363l11.98 1.09" stroke-width="1.2" stroke="#000" stroke-miterlimit="10" fill="none"/><path d="M185.87 104.77h14v11h-14zm0 0" fill="#fff"/><g fill="#00f"><use xlink:href="#b" x="185.871" y="113.433"/><use xlink:href="#c" x="192.849" y="113.433"/></g><path d="M216.832 112.453l10.09 21.84M222.98 112.262l8.07 17.472M230.7 92.793l-13.868 19.66M226.922 134.293l23.96 2.184M250.883 136.477l13.867-19.66M247.64 131.246l11.098-15.726M264.75 116.816l-10.09-21.84M254.66 94.977l-23.96-2.184M251.75 100.395l-19.168-1.747" stroke-width="1.2" stroke="#000" stroke-miterlimit="10" fill="none"/></g></svg>
